X:1
T:Title
L:1/8
Q:1/4=120
M:3/4
K:A
V:1 treble nm="Church Organ, Staff"
V:1
 AB c2 d2 | cB A4 | GA B4 | A2 E4 | E2 E4 | AB c2 d2 | cB A4 | AB c2 d2 | cB A4 | Ac e2 e2 | %10
w: By~C.~J.~Ridsdale * * *||||||||||
 f2 e2 c2 | e2 B2 d2- | d2 d4 | d2 c2 B2 | c2 A2 B2- | BB A4- | A2 A2 z2 | e2 e2 c2 | e2 f2 c2 | %19
w: |||||||||
 f2 e2 c2 | e2 d4 | d2 c2 B2 | c2 A2 B2- | BB A4- | A2 A2 z2 |] %25
w: ||||||

